X:68
T:Pigopolskan
R:Polska
D:[[Grupper/Sågskära]] - Krook
D:[[Personer/Johan Hedin]] och [[Personer/Gunnar Idenstam]] - Låtar II - Swedish Folk Tunes (spår 4, CAP21807).
Z:till abc av Jon Magnusson 2011-03-09
O:Småland/Östergötland
S:Efter Pehr Hörberg
M:3/4
L:1/8
K:Gm
D|:"Gm" GG/2^F/2 GA B/2A/2G/2F/2|"Bb" B3/2A/2 Bc d/2c/2B/2A/2|"Eb" g2 d3/2c/2 "Cm"d/2c/2B/2A/2 | "Eb"B/2c/2B/2A/2 "D"G^F "D7/A"D2|
"Gm" GG/2^F/2 GA B/2A/2G/2F/2|"Bb" B3/2A/2 Bc d/2c/2B/2A/2|"Eb" g2 d3/2c/2 "Cm"d/2c/2B/2A/2|[1 "Dm" B/2A/2G/2F/2 "Gm" G3 D:|[2 "Dm" B/2A/2G/2F/2 "Gm" G3 A|]
|:"Gm" dc d2 dA|"F" a3/2g/2 f=e f2|"C" =e3/2f/2 gf =e3/2d/2|"C" cc/2d/2 "Bb" BB/2c/2 "D7" A2|
"Gm" dc d2 dA|"F" B/2c/2B/2A/2 G^F D3/2D/2|"Eb" B,/2D/2E/2F/2 G2 "Cm"BA|[1 "Dm" FD/2F/2 "Gm" G3 A:|[2 "Dm" FD/2F/2 "Gm" G4|]
(:musicend:)

Hörberg föddes i Virestad i Småland men bodde större delen av sitt liv i Östergötland.
(:music:)
